X: 3004
M: C|
L: 1/8
K: G
|:\
g3e (dB)(AG) | A3B E3F | (GF)(GA) (BA)(BG) | B2 d4 c>B |\
c3d (ed)(ef) | gf (g/a/b) e3f | (gf)(ed) (ae)(fg) | f2 d4 :|
|: fg |\
a3f (gf)(ga) | b3e^d3B | (ef)(ga) (ba)(fa) | g2 e4 g>d |\


